 -------------------------------------------------------------------- Instruments
:{
let vk = s "vk" # n 3
    vs = s "vs" # n 117
    vh = s "vh" # n 2 # sus 0.08
    vo = s "vh" # n 15 # sus 1
    gretsch x = n x # s "gretsch" # bus
    -- piano x = tonal mode x # s "superpiano" # lpf 450 # bus # octave 5
    -- vibe x  = tonal mode x # s "supervibe" # lpf 500 # bus
:}

:{
-- Midi Instruments
let mm = s "mm" # orbit 0 # midichan 0
    reface = s "reface" # orbit 0 # midichan 0
:}
